icons/training.svg

<svg
  xmlns="http://www.w3.org/2000/svg"
  viewBox="0 0 500 500"
  width="500"
  height="500"
  fill="#ffffff"
>
  <path d="M382.7 186.5H116.8a9.6 9.6 0 1 0 0 19.2h265.9a9.6 9.6 0 1 0 0-19.2z" />
  <path d="M382.7 103.5H116.8a9.6 9.6 0 1 0 0 19.2h265.9a9.6 9.6 0 1 0 0-19.2z" />
  <path d="M249.7 269.5H116.8a9.6 9.6 0 1 0 0 19.2h132.9a9.6 9.6 0 0 0 0-19.2z" />
  <path d="M475.8 30.5H259.3V5h-19.2v25.5H24.2v19.2h28.3a12.3 12.3 0 0 0-.2 2.7v289.8H24.2v19.2h215.9v45.1L168 478.6a9.7 9.7 0 0 0 0 13.6 9.6 9.6 0 0 0 6.8 2.8 9.4 9.4 0 0 0 6.8-2.8l58.5-58.5v51.7a9.6 9.6 0 0 0 19.2 0v-51.7l58.5 58.5a9.6 9.6 0 0 0 6.8 2.8 9.6 9.6 0 0 0 6.8-16.4l-72.1-72.1v-45.1h216.5v-19.2h-28.7a3.7 3.7 0 0 0 .1-1.1V52.4a24.5 24.5 0 0 0-.2-2.7h28.8zM428 52.4v288.7a1.1 1.1 0 0 1-1.1 1.1H72.6a1.1 1.1 0 0 1-1.1-1.1V52.4a1.1 1.1 0 0 1 1.1-1.1h354.3a1.1 1.1 0 0 1 1.1 1.1z" />
</svg>

<svg xmlns="http://www.w3.org/2000/svg" viewBox="0 0 500 500">
  <g id="training">
    <path id="line2" d="M382.7,186.5H116.8a9.6,9.6,0,1,0,0,19.2H382.7a9.6,9.6,0,1,0,0-19.2Z"/>
    <path id="line1" d="M382.7,103.5H116.8a9.6,9.6,0,1,0,0,19.2H382.7a9.6,9.6,0,1,0,0-19.2Z"/>
    <path id="line3" d="M249.7,269.5H116.8a9.6,9.6,0,1,0,0,19.2H249.7a9.6,9.6,0,0,0,0-19.2Z"/>
    <path id="outline" d="M475.8,30.5H259.3V5H240.1V30.5H24.2V49.7H52.5a12.3,12.3,0,0,0-.2,2.7V342.2H24.2v19.2H240.1v45.1L168,478.6a9.7,9.7,0,0,0,0,13.6,9.6,9.6,0,0,0,6.8,2.8,9.4,9.4,0,0,0,6.8-2.8l58.5-58.5v51.7a9.6,9.6,0,0,0,19.2,0V433.7l58.5,58.5a9.6,9.6,0,0,0,6.8,2.8,9.6,9.6,0,0,0,6.8-16.4l-72.1-72.1V361.4H475.8V342.2H447.1a3.7,3.7,0,0,0,.1-1.1V52.4a24.5,24.5,0,0,0-.2-2.7h28.8ZM428,52.4V341.1a1.1,1.1,0,0,1-1.1,1.1H72.6a1.1,1.1,0,0,1-1.1-1.1V52.4a1.1,1.1,0,0,1,1.1-1.1H426.9A1.1,1.1,0,0,1,428,52.4Z"/>
  </g>
</svg>
